X: 2
T: Acano mlada nevesto
O: Macedonia
N: Introduced by Atanas Kolarovski
S: R.B.Iverson
M: 11/16
L: 1/16
K: Am^G
"vocal:"\
|: "Am"E3  e2e2 d2c2 | "E"~B2A "Dm"~A2GA "E"B2-B2 :: "Am"A2A dccB BAAG |
| "E"~G2F "Dm"~F2EF "E"~G2FE | "Am"A2A dccB BAAG | "E"~G2F "Dm"~FGFE "E"E2E2 :|
"instr:"\
|: "E"EFD EFGA BcBA | Bcd "Dm"cBcA "E"BEeE \
|  "E"EFD EFGA BcBA | GAB "Dm"AGFE "E"E2-E2 :|
